X: 312
T: Soldier's Joy
B: canberra pickers and fiddlers
B: tunes
M:4/4
L:1/8
R: Engelska
Q: 1/4=180
K:D
V:1 
FG |: AFDF AFDF | A2 dc d2 FG | AFDF AFDF | G2 E2 E2 FG |$ AFDF AFDF | A2 dc d2 de | fafd egec |1 
d6 FG :|2 d6 de $|: fefg abaf | edcd efge | fefg abaf | edcB A2 de |$ fefg abaf | edcd efge | 
fafd egec |1 d6 de :|2 d6 z2 |]
W: Shaking hands and fingers that do tremble
W: Soldier's joy has been a bitter pill
W: Though in battle a brave man I resemble
W: Alone, I am a coward without will
W: 
W: Here's McGee from the great state of Missouri
W: To the ?Show-Me State Militia? I belong
W: And to judge from the pride on the Confederate side
W: I'd say five hundred thousand rebels can't be wrong
W: 
W: A rebel stand is no place for a traitor
W: A loveless union cannot bend us to her will
W: Cannot command the soldiers who now hate her
W: Nor demand a bounty of her generals
W: 
W: I took a rifle ball in my shoulder
W: But my entire body filled with pain
W: I waited with them all at the field hospital
W: Oh God, another shot of morphine
W: 
W: Soldier's joy, oh, what's the point in pleasure
W: When it's only meant to kill the pain?
W: Lay down my arms and take the coffin's measure
W: Or take up arms and send me out to fight again
W: 
W: Shaking hands, was I a coward, was I brave?
W: Shaking hands, I took the bitter pill
W: Tell the story on my grave, my soul they could not save
W: What the bullet could not kill, the needle will
% abcbook-tune_id 63da5934d7cfb02ade5b9444
% abcbook-tune_composer_id 
% abcbook-link-0 https://www.youtube.com/watch?v=CZYyVtRAkZ4
% abcbook-link-start-at-0 6
% abcbook-boost 0
% abcbook-difficulty 0
% abcbook-tags canberra pickers and fiddlers,old time tunes,© free
% abcbook-tablature 
% abcbook-transpose 
% abcbook-tuning ADAE
% abcbook-lastupdated 1737397139132
% abcbook-src-url https://tunebook.net/scrape/tunes.abc
% abcbook-soundfonts 
% abcbook-repeats 1
%%gchordfont "itim-music,Itim" 20

